X: 12
T: Ceol Anna
C:Phil Cunningham
M:3/4
L:1/8
K:AMin
E(3E/E/E/|e4 E(3E/E/E/|d4 E(3E/E/E/|c4 A2|G(EE4)|
E4 EG|E4 DC|E(GG4)|A4 E(3E/E/E/|e4 E(3E/E/E/|
d4 E(3E/E/E/|c4 A2|G(EE4)| E4 EG|E4 DC E(GG4)|A6 ||
e3 d e2| a4 a2| g4 d2|e(AA4)|e3 f ec|d3 e d/c/A|
c4 d2|A/G/(EE2) E(3E/E/E/| e4 G(3G/G/G/|e4 G(3G/G/G/| c4 A2|
G(EE4)|E4 EG|E4 (3D/E/D/C|E(GG4)|A4 ||

%%sep 2 1 500

